X: 1
T: Dorrington Lads, The
M: 9/8
L: 1/8
R: slip jig
K: Gmaj
|:e|dGG dcB gdB|dGG dcB cde|dGG dcB gdB|eAA ced c2:|
|:e|d2g fag fdg|fag fdf ece|d2g fag fdf|eAA ced c2:|
